src/mimetypes/scalable/application-x-ms-dos-executable.svg

<svg width="64" height="64" version="1.1" viewBox="0 0 16.933 16.933" xmlns="http://www.w3.org/2000/svg">
 <defs>
  <filter id="a" x="-.039001" y="-.033428" width="1.078" height="1.0669" color-interpolation-filters="sRGB">
   <feGaussianBlur stdDeviation="0.20637525"/>
  </filter>
 </defs>
 <path d="m3.4395 1.3543c-0.73289 0-1.3229 0.59001-1.3229 1.3229v12.171c0 0.73289 0.59001 1.3229 1.3229 1.3229h10.054c0.73289 0 1.3229-0.59001 1.3229-1.3229v-10.319l-3.175-3.175z" fill-rule="evenodd" filter="url(#a)" opacity=".15" stroke-width=".26458" style="paint-order:stroke fill markers"/>
 <g fill-rule="evenodd">
  <path transform="scale(.26458)" d="m13 4c-2.77 0-5 2.23-5 5v46c0 2.77 2.23 5 5 5h38c2.77 0 5-2.23 5-5v-39l-12-12h-31z" fill="#f4f4f4" style="paint-order:stroke fill markers"/>
  <path d="m14.816 4.2332-3.1749-3.1749v1.852c0 0.73288 0.59001 1.3229 1.3229 1.3229z" fill="#bbb" style="paint-order:stroke fill markers"/>
 </g>
 <path d="m8.4665 4.1635-2.0579 2.0579 2.0579 2.0579 2.0579-2.0579zm2.245 2.245-2.0579 2.0579 2.0579 2.0579 2.0579-2.0579zm-4.49 0-2.0579 2.0579 2.0579 2.0579 2.0579-2.0579zm2.245 2.245-2.0579 2.0579 2.0579 2.0579 2.0579-2.0579z" enable-background="new" fill="#37a6e6"/>
 <path d="m11.641 2.9104v0.15451c0 0.79397 0.59 1.433 1.3229 1.433h1.852l1.42e-4 -0.26463-1.8522 5e-5c-0.73289 1.98e-5 -1.3229-0.59001-1.3229-1.3229z" fill-rule="evenodd" opacity=".1" stroke-width="1.0408" style="paint-order:stroke fill markers"/>
</svg>

<svg width="64" height="64" viewBox="0 0 16.933 16.933" xmlns="http://www.w3.org/2000/svg"><defs><filter id="a" x="-.039" y="-.033" width="1.078" height="1.067" color-interpolation-filters="sRGB"><feGaussianBlur stdDeviation=".206"/></filter></defs><path d="M3.44 1.354a1.32 1.32 0 0 0-1.323 1.323v12.171c0 .733.59 1.323 1.323 1.323h10.053a1.32 1.32 0 0 0 1.323-1.323V4.53l-3.175-3.175z" fill-rule="evenodd" filter="url(#a)" opacity=".15" style="paint-order:stroke fill markers"/><g fill-rule="evenodd"><path transform="scale(.26458)" d="M13 4c-2.77 0-5 2.23-5 5v46c0 2.77 2.23 5 5 5h38c2.77 0 5-2.23 5-5V16L44 4H13z" fill="#f4f4f4" style="paint-order:stroke fill markers"/><path d="m14.816 4.233-3.175-3.175V2.91c0 .733.59 1.323 1.323 1.323z" fill="#bbb" style="paint-order:stroke fill markers"/></g><path d="M8.466 4.163 6.41 6.221 8.467 8.28l2.057-2.058zm2.246 2.245L8.654 8.466l2.058 2.058 2.057-2.058zm-4.49 0L4.164 8.466l2.058 2.058 2.057-2.058zm2.245 2.245-2.058 2.058 2.058 2.058 2.057-2.058z" enable-background="new" fill="#37a6e6"/><path d="M11.641 2.91v.155c0 .794.59 1.433 1.323 1.433h1.852v-.265h-1.852A1.32 1.32 0 0 1 11.64 2.91z" fill-rule="evenodd" opacity=".1" style="paint-order:stroke fill markers"/></svg>
